packages/katcn/src/icons/svg/loadFile-solid.svg

<svg width="24" height="25" viewBox="0 0 24 25" fill="none" xmlns="http://www.w3.org/2000/svg">
<path d="M18.8718 7.48809L14.7692 3.38809C14.1538 2.68809 13.2308 2.28809 12.3077 2.28809H6.66667C5.23077 2.28809 4 3.48809 4 4.98809V19.6881C4 21.0881 5.23077 22.2881 6.66667 22.2881H17.3333C18.7692 22.2881 20 21.0881 20 19.5881V11.1881V9.98809C20 8.98809 19.5897 8.08809 18.8718 7.48809Z" fill="black"/>
<path d="M14.6 15.0881C14.3 14.6881 13.6 14.5881 13.2 14.8881L12.8 15.1881V13.2881C12.8 12.6881 12.4 12.2881 11.8 12.2881C11.2 12.2881 10.8 12.6881 10.8 13.2881V15.1881L10.4 14.8881C10 14.5881 9.30003 14.5881 9.00003 15.0881C8.70003 15.4881 8.70003 16.1881 9.20003 16.4881L11.2 18.0881L11.3 18.1881C11.3 18.1881 11.4 18.1881 11.4 18.2881C11.5 18.2881 11.6 18.2881 11.8 18.2881C11.9 18.2881 12.1 18.2881 12.2 18.1881L12.3 18.0881C12.3 18.0881 12.3 18.0881 12.4 18.0881L14.4 16.4881C14.8 16.0881 14.9 15.4881 14.6 15.0881Z" fill="white"/>
</svg>

<svg xmlns="http://www.w3.org/2000/svg" fill="none" viewBox="0 0 24 25"><path fill="#000" d="m18.872 7.488-4.103-4.1a3.3 3.3 0 0 0-2.461-1.1H6.667C5.23 2.288 4 3.488 4 4.988v14.7c0 1.4 1.23 2.6 2.667 2.6h10.666c1.436 0 2.667-1.2 2.667-2.7v-9.6c0-1-.41-1.9-1.128-2.5"/><path fill="#fff" d="M14.6 15.088c-.3-.4-1-.5-1.4-.2l-.4.3v-1.9c0-.6-.4-1-1-1s-1 .4-1 1v1.9l-.4-.3c-.4-.3-1.1-.3-1.4.2-.3.4-.3 1.1.2 1.4l2 1.6.1.1s.1 0 .1.1h.4c.1 0 .3 0 .4-.1l.1-.1h.1l2-1.6c.4-.4.5-1 .2-1.4"/></svg>
